X:1
T:Ivy Leaf
L:1/8
M:2/2
I:linebreak $
K:D
V:1 treble 
V:1
 A2 ed cdec | AEAe dBGB | A2 ed cdec |1 AGEF GABG :|2 AGEF GABd |:$ eaag ed (3Bcd | g3 d BGBd |1 %7
 eaag edcB | AGEF GABd :|2 A3 B =cBcd |$ (3efg fa gedB ||"^Version 2:" A3 e cAec | Ae e2 dBGB | %13
 A2 ed (3Bcd ed | BGEF GA (3BAG | Ae e2 ae e2 |$ Ae e2 dBGB | A2 ed (3Bcd ed | BGEF GA (3Bcd || %19
 eaag ed (3Bcd | g3 d BGBd |1$ eaag edcB | AGEF GA (3Bcd :|2 A3 B =cBcd | (3efg fagedB || %25
